X:118
T:Trip to Chester. JJo.118
B:J.Johnson Choice Collection Vol 4, 1748
Z:vmp.Steve Mansfield 2014 www.village-music-project.org.uk
M:9/8
L:1/8
Q:3/8=90
K:G
g2d (B/c/d)B dBG | g2d (B/c/d)B AFD | g2d (B/c/d)B dBG | (B/c/d)B ADF G3 ?
|: (g/a/b)g bge bge | (f/g/a)f afd afd | gfg eba gfe | (f/g/a)f eA^c d2B |
cdc afc afc | BcB gdB gdB | gfe dec BAG | (B/c/d)B ADF G3 ?

